!!!!SEGMENT: pl-kc--40102-iii-1-saf--002-035_zielenski-mikolaj--communiones-totius-anni-in-solemnitate-corporis-christi-quotiescunque.krn
!!!cenid: 16xx:1566
!!!COM: Zieleński, Mikołaj
!!!COM-rismid: pe30013481
!!!CDT:
!!!CNT: Polish
!!!GTL: Communiones totius anni
!!!OTL: In Solemnitate Corporis Christi/Quotiescunque
!!!OMV: 035
!!!PDT: 1611
!!!AGN:
!!!SMS-siglum: PL-Kc
!!!SMS-shelfmark: 40102 III/1 Saf.
!!!SMS-shelfwork: 002-035 G
!!!SMS-variant:
!!!SMS-altvar:
!!!NIFC-rismid: 990069887
!!!URL-scan: https://cyfrowe.mnk.pl/dlibra/publication/24235/edition/23926/content?ref=desc
!!!ONB-nifc: UWAGA: str. 61-62. Numer w źródle: 41. Uwaga: W xml metrum 2/1 do źródłowego C| i odpowiednio 3/1 do 3/2
!!!key:
**kern	**kern	**kern	**kern
*part4	*part3	*part2	*part1
*staff4	*staff3	*staff2	*staff1
*I"	*I"	*I"	*I"Organo
*I'	*I'	*I'	*I'org
*Iorgan	*Iorgan	*Iorgan	*Iorgan
*ICklav	*ICklav	*ICklav	*ICklav
*clefF3	*clefC3	*clefC1	*clefG2
*k[b-]	*k[b-]	*k[b-]	*k[b-]
*d:	*d:	*d:	*d:
*M2/1	*M2/1	*M2/1	*M2/1
*met(C|)	*met(C|)	*met(C|)	*met(C|)
=1	=1	=1	=1
!LO:TX:t=P:problem:zdwojony znak przykluczowy	!	!	!
!	!	!	!LO:TX:b:t=Quotieſcumque.
!	!	!	!LO:TX:a:t=41. In Solemnitate Corporis Chriſti.  à 4.
1d	1a	1dd	1ff
2d\	2a\	2dd\	2ff\
2A\	4a\	2cc\	2ee\
.	4g\	.	.
=2-	=2-	=2-	=2-
1B-	4f\	1b-	1dd
.	4e\	.	.
.	2f\	.	.
2.F/	2.f\	2a\	2cc\
.	.	2a\	2ff\
4F/	4c/	.	.
=3	=3	=3	=3
2c\	2e\	2g/	2ee\
2.G\	2.d\	2.b-\	2.gg\
4G\	4d\	4b-\	4gg\
2A\	2c/	4a\	4ff\
.	.	4g/	4ee\
=4-	=4-	=4-	=4-
2B-\	2d\	4f/	2dd\
.	.	4d/	.
2c\	2c/	2g/	2ee\
2F/	2c/	2a\	2ff\
2c\	2e\	2g/	4ee\
.	.	.	[<4ee\
=5	=5	=5	=5
4.A\	4.a\	4.cc\	4ee\]
.	.	.	4ee\
8A\	8a\	8cc\	.
4d\	4f\	4b-\	2ff\
4d\	4f\	4a\	.
1B-	2f\	4a\	2dd\
.	.	8g/	.
.	.	8f/	.
.	4e\	2g/	2dd\
.	4d\	.	.
=6-	=6-	=6-	=6-
2A\	2e\	2a\	2cc\
2A\	2c#X/	2a\	2ee\
4.F/	4.d\	2a\	4.ff\
8F/	8d\	.	8ee\
4G\	4B-/	4a\	4dd\
8F/	4c#X/	4g/	4gg\
8E/	.	.	.
=7	=7	=7	=7
2D/	2d\	2dd\	2ff\
2D/	2d\	2dd\	2ff\
2A\	2e\	2cc\	2ee\
2F/	2f\	2a\	4r
.	.	.	2ff\
=8-	=8-	=8-	=8-
2B-\	2d\	2f/	.
.	.	.	2dd\
2G\	2g\	2b-\	.
.	.	.	2gg\
2c\	2e\	2f/	.
.	.	.	4ee\
[2F/	[2c/	[<2a\	[<2ff\
=9	=9	=9	=9
2F/]	2c/]	2a\]	2ff\]
2F/	2c/	2a\	2cc\
2C/	2g\	2cc\	2ee\
2D/	2f\	2a\	2dd\
=10-	=10-	=10-	=10-
2.A\	2.e\	2.a\	2cc#X\
.	.	.	2ee\
4A\	4c#X/	4a\	.
2F/	4d\	2a\	2ff\
.	4A/	.	.
!	!LO:N:acc=#	!	!
2G\	4Bn/	2g/	2dd\
.	[<4d\	.	.
=11	=11	=11	=11
2.E/	4d\]	2.g/	2.ee\
.	8c#X/	.	.
.	8Bny/	.	.
.	2c#/	.	.
4E/	.	4g/	4ee\
2D/	2d\	1f	2a/
4D/	2.A/	.	1ff\
4E/	.	.	.
=12-	=12-	=12-	=12-
4F/	.	1a	.
4G\	4B-y/	.	.
4A\	4cny/	.	2.cc\
4B-\	4d\	.	.
2c\	4e\	1g	.
.	4f\	.	4dd\
[y2C/	4g\	.	4ee\
.	4f\	.	4ff\
=13	=13	=13	=13
!LO:N:xstem:cue	!	!	!
4C/]	2e\	2.cc\	2gg\
4D/	.	.	.
4E/	2e\	.	4g/
4F/	.	8b-\	4a/
.	.	8a\	.
2.G\	1.d	4g\	4b-/
.	.	4a\	4cc\
.	.	4b-\	4dd\
8F/	.	4cc\	4ee\
8E/	.	.	.
=14-	=14-	=14-	=14-
4D/	.	2.dd\	2.ff\
4E/	.	.	.
4F/	2A/	.	.
4G\	.	8cc\	8ee\
.	.	8b-\	8dd\
2.A\	2.e\	4a\	4cc\
.	.	4b-\	4dd\
.	.	4cc\	4ee\
4A\	8d\	4a\	4ff\
.	8c\	.	.
=15	=15	=15	=15
2G\	4g\	2b-\	4ee\
.	4f\	.	4dd\
2D/	4f\	1a	2.dd\
.	8e\	.	.
.	8d\	.	.
2.A\	2e\	.	.
.	.	.	8cc#X\
!	!	!	!LO:SIC:v:s=8bn\
.	.	.	8b-\
.	2e\	2a\	2cc#\
4A\	.	.	.
=16-	=16-	=16-	=16-
0D	1d	1f#X	1dd
.	2.d\	2.a\	2.ff\
.	4d\	4a\	4ff\
=17	=17	=17	=17
!LO:TX:b:t=Partitura Nicolai Zielenski.	!	!	!
00r	2B-/	2dd\	2ff\
.	2c/	2cc\	2ee\
.	2d\	2b-\	2dd\
.	2f\	2a\	2cc\
=18-	=18-	=18-	=18-
.	2.c/	2.cc\	2.ee-X\
.	4d\	4b-\	4dd\
.	2f\	2a\	2cc\
.	2g\	2g/	2b-/
=19	=19	=19	=19
!	!	!LO:TX:t=P:problem:na początku taktu zbędna 1c wykreślona ołówkiem	!
0r	1d	1f	2a/
.	.	.	2.dd\
.	1e-X	1g	.
.	.	.	8cc\
.	.	.	8b-\
.	.	.	2cc\
=20-	=20-	=20-	=20-
2.D/	1d	1a	1dd
!LO:TX:b:t=H     3	!	!	!
4D/	.	.	.
2D/	2.d\	2.dd\	2.ff\
[2BB-/	.	.	.
.	4d\	4dd\	4ff\
*custos:BB	*custos:B	*custos:dd	*custos:ff
!!pagebreak:original
=21	=21	=21	=21
2BB-/]	2B-/	2dd\	2ff\
1F	2c/	2a\	2cc\
.	2c/	2a\	2cc\
2C/	2c/	2g/	2ee-X\
=22-	=22-	=22-	=22-
2.G\	2.d\	2.b-\	2.dd\
4F/	4d\	4a\	4a/
2E-X/	2G/	2g/	2b-/
2C/	2e-X\	2g/	2cc\
=23	=23	=23	=23
2.D/	1d	2f#X/	2a/
.	.	2.dd\	2.ff\
4C/	.	.	.
1BB-	0f	.	.
.	.	4cc\	4ee\
.	.	2.b-\	4dd\
.	.	.	8cc\
.	.	.	8b-\
=24-	=24-	=24-	=24-
1F	.	.	1cc
.	.	8a\	.
.	.	8g\	.
.	.	2a\	.
2.BB-/	2f\	2b-\	1dd
.	2d\	2f#n/	.
4B-\	.	.	.
=25	=25	=25	=25
4.G\	4.g\	4.b-\	00r
8G\	8g\	8b-\	.
4c\	4e\	4g/	.
4c\	4e\	4g/	.
4.A\	4.a\	4.cc\	.
8A\	8a\	8cc\	.
4d\	4f\	4a\	.
4.B-\	4.f\	4.dd\	.
=26-	=26-	=26-	=26-
.	.	.	.
8A\	8f\	8cc\	.
4G\	4g\	4b-\	.
2.A\	2.c/	2.cc\	.
4G\	8d\	4b-\	.
.	8e\	.	.
2F/	4f\	2a\	.
.	[<4f\	.	.
=27	=27	=27	=27
2c\	4f\]	2g/	1r
.	8e\	.	.
.	8d\	.	.
2C/	2e\	2g/	.
1F	2.f\	2.a\	2r
.	.	.	2cc\
.	4f\	4a\	.
=28-	=28-	=28-	=28-
0r	4.d\	4.dd\	4.ff\
.	8d\	8dd\	8ff\
!	!	!LO:N:acc=#	!
.	4g\	4bn\	4dd\
.	4g\	4b\	4dd\
.	4.c/	4.cc\	4.ee-X\
.	8c/	8cc\	8ee-\
.	[y2f\	[y2a\	[y2cc\
=29	=29	=29	=29
!	!LO:N:xstem:cue	!LO:N:xstem:cue	!LO:N:xstem:cue
0r	4f\]	4a\]	4cc\]
.	4.f\	4.a\	4.dd\
.	8e\	8g/	8ee\
.	4d\	4dd\	4ff\
.	4.e\	2g/	2gg\
.	8d\	.	.
.	2c/	2cc\	2ee\
=30-	=30-	=30-	=30-
!	!	!LO:N:acc=#	!
0r	4.g\	2bn\	2dd\
.	8g\	.	.
.	2d\	1dd	1ff
.	[y1a	.	.
.	.	4cc\	4ee\
!	!	!LO:N:acc=#	!
.	.	4bn\	4dd\
=31	=31	=31	=31
!	!LO:N:vis=4:xstem:cue	!	!
2r	2a\]	4cc#X\	2ee\
.	.	2dd\	.
2A\	2a\	.	2ee\
.	.	4cc#X\	.
4.d\	2.f\	2dd\	2.dd\
8d\	.	.	.
4B-\	.	4r	.
4B-\	4f\	4b-\	4dd\
=32-	=32-	=32-	=32-
!	!LO:N:vis=4	!	!
4.F/	4.a\	4.ccny\	4.ff\
8F/	8a\	8cc\	8ff\
4c\	4g\	4cc\	4ee\
4c\	4e\	4g/	4ee\
4.G\	4.d\	4.b-\	4.gg\
8G\	8g\	8b-\	8gg\
[<2A\	[<2e\	[<2a\	[<2cc\
=33	=33	=33	=33
4A\]	4e\]	4a\]	4cc\]
4.F/	4.f\	4.a\	4.cc\
8E/	8g\	8g/	8cc\
4D/	4a\	4f#X/	4dd\
!	!	!	!LO:N:acc=#
4.G\	2d\	2g/	2bn/
8F/	.	.	.
2E/	2e\	2g/	2cc\
=34-	=34-	=34-	=34-
2D/	2f#X\	2a\	2dd\
2.B-\	2.d\	2.f/	2.dd\
4A\	4A/	4f/	4cc\
!	!	!LO:TX:t=P:problem:nad dźwiękiem wpisana poprawna wartość	!
!	!	!LO:N:vis=4	!
2G\	2d\	2g/	2b-y/
=35	=35	=35	=35
2.A\	2.c/	2.e/	2.cc\
4G\	4G/	4e/	4b-/
2F/	4A/	2f/	2a/
.	4A/	.	.
*	*	*lig	*
2G\	2B-/	1d/	2.dd\
=36-	=36-	=36-	=36-
1.D	2A/	.	.
.	.	.	4cc\
*	*	*col	*
.	1d	2.g\	4b-/
.	.	.	8a/
.	.	.	8g/
.	.	.	2a/
*	*	*Xlig	*
.	.	8f#X/	.
.	.	8e/	.
*	*	*Xcol	*
2D/	2d\	2f#/	2a/
=37	=37	=37	=37
1G	2.d\	2g/	2g/
.	.	2b-\	2gg\
.	4g\	.	.
1r	2a\	2cc\	2ee\
.	2f\	2a\	2ff\
=38-	=38-	=38-	=38-
0r	4g\	4b-\	4dd\
.	4g\	4b-\	4dd\
.	2e\	2g/	2ee\
.	2.d\	2.a\	2.ff\
.	4c#X/	4e/	4ee\
=39	=39	=39	=39
1r	2d\	2f/	2dd\
.	2B-/	2g/	2dd\
*custos:A	*custos:A	*custos:a	*custos:cc
!!linebreak:original
=-	=-	=-	=-
2r	2A/	2.a\	1cc#X
2A\	2e\	.	.
.	.	4a\	.
=40-	=40-	=40-	=40-
2F#X/	2d\	2a\	0r
2G\	2d\	2g/	.
4E/	4c/	4g/	.
4E/	4c/	4g/	.
2Fny/	2A/	2f/	.
=41	=41	=41	=41
2.D/	2.f\	2.a\	0r
4E/	2e\	4g/	.
4.F/	.	2f/	.
.	2d\	.	.
8G\	.	.	.
2A\	.	2e/	.
.	4c#X/	.	.
=42-	=42-	=42-	=42-
2.D/	2.d\	2d/	2r
.	.	2f#X/	2dd\
4D/	4A/	.	.
!LO:N:acc=#	!	!	!
2BBn/	2G/	2g/	2dd\
2C/	2G/	2e/	2cc\
=43	=43	=43	=43
4AA/	4c/	4f/	4cc\
4AA/	4c/	4f/	4cc\
2BB-/	2d\	2f/	2b-/
2.F/	2.c/	2.f/	2.a/
4C/	4c/	4e/	4g/
=44-	=44-	=44-	=44-
2D/	2A/	2d/	2f#X/
2GG/	2B-/	2e/	2g/
2.D/	2.A/	2f/	2a/
.	.	2a\	2ff\
4D/	4d\	.	.
=45	=45	=45	=45
2.AX\	2.c#X/	2.a\	2.ee\
4A\	4c#/	4a\	4ee\
2F#X/	4d\	2a\	2dd\
.	4cny/	.	.
2.G\	4B-/	1g\	1dd\
.	4A/	.	.
=46-	=46-	=46-	=46-
.	2B-/	.	.
4Fny/	.	.	.
2E/	2G/	2g/	2gg\
2D/	2d\	2a\	2ff#X\
!	!	!LO:N:acc=#	!
[<2G\	[<2d\	[<2bn\	[<2gg\
=47	=47	=47	=47
2G\]	2d\]	2b\]	2gg\]
2.C/	2.g\	2.cc\	2.ee\
4C/	4g\	4cc\	4ee\
2F/	2c/	4a\	1ff\
.	.	4g/	.
=48-	=48-	=48-	=48-
2.BB-/	2.d\	4f/	.
.	.	4e/	.
.	.	2f/	2.dd\
4C/	8c/	.	.
.	8B-/	.	.
[1D	2A/	2d/	.
.	.	.	4cc\
.	2G/	[2g/	4b-/
.	.	.	8cc\
.	.	.	8b-\
=49	=49	=49	=49
2D/]	2A/	4g/]	2a/
.	.	8f#X/	.
.	.	8e/	.
2D/	2.d\	2f#/	2a/
2.G\	.	2.g/	2g/
.	4c/	.	.
.	4B-/	.	2.dd\
4G\	8A/	4g/	.
.	8G/	.	.
=50-	=50-	=50-	=50-
2D/	4A/	2fny/	.
.	2d\	.	2ff\
2F/	.	2a\	.
.	4A/	.	2cc\
2C/	2c/	2.g/	.
.	.	.	2ee-X\
2E-X/	2G/	.	.
.	.	4g/	[4b-/
=51	=51	=51	=51
2BB-/	2B-/	2f/	4b-/]
.	.	.	2dd\
2D/	2F/	2f/	.
.	.	.	2a/
2AA/	2A/	2.e/	.
.	.	.	2cc\
2C/	2G/	.	.
.	.	4e/	4g/
=52-	=52-	=52-	=52-
4.GG/	2d\	2g/	2b-/
8AA/	.	.	.
4BB-/	2d\	2g/	2b-/
4GG/	.	.	.
2.D/	2d\	2f/	2a/
.	[y2d\	[<2a\	[y2ff\
4E/	.	.	.
=53	=53	=53	=53
!	!LO:N:xstem:cue	!	!LO:N:xstem:cue
2.F/	4d\]	2a\]	4ff\]
.	4c/	.	4ee\
.	2f\	1a	2dd\
4G\	.	.	.
2A\	2e\	.	2cc#X\
2E/	2g\	2cc\	1ee\
=54-	=54-	=54-	=54-
2.F/	2f\	1a	.
.	1f	.	2dd\
4G\	.	.	.
1A	.	[<1a	2cc#X\
.	4e\	.	[y2dd\
.	4d\	.	.
=55	=55	=55	=55
!	!	!	!LO:N:xstem:cue
1AA	1e	1a]	4dd\]
.	.	.	8cc#X\
!	!	!	!LO:SIC:v:s=8bn\
.	.	.	8b-\
.	.	.	2cc#\
2D/	2f#X\	2a\	2dd\
1G\	1d\	2.b-\	1dd\
=56-	=56-	=56-	=56-
.	.	.	.
.	.	4cc\	.
2F#X/	2d\	2.dd\	2a/
0G	1.d	.	2.b-/
.	.	4cc\	.
.	.	4b-\	.
.	.	4a\	4ccny\
=57-	=57-	=57-	=57-
.	.	4b-\	1dd
.	.	4g/	.
.	1g	1b-	.
0.Dl	.	.	0.ddl
.	4f#X\	4a\	.
.	4e\	4g/	.
=58-	=58-	=58-	=58-
.	0f#Xl	0al	.
==	==	==	==
*-	*-	*-	*-
!!!system-decoration: [s1,s2,s3,s4]
!!!RDF**kern: l = terminal long
!!!RDF**kern: i = editorial accidental
!!!RDF**kern: > = above
!!!RDF**kern: < = below
!!!AIN: 4 organ
!!!ENC: Katarzyna Serwa
!!!END: 2021-12-25
!!!ENC: Filip Voros
!!!END: 2021-12-21
